X: 32
T:AVANT DEUX DE TRAVERS
M:4/4
L:1/8
Q:1/4=120
Z:YVES BELOTTEAU
Z:Yves BELOTTEAU
K:G
P:1
|:Bcdd c/2d/2e/2f/2gd|Bcde/2d/2 ccB3/2 z/2:|
|:GABG A/2G/2A/2e/2dB|GABB A/2B/2A/2F/2G3/2 z/2:|
P:2
|:GABG A/2B/2A/2F/2GD|GABG A/2B/2A/2F/2G3/2 z/2:|
c/2B/2c/2d/2ee d/2e/2d/2c/2d3/2 z/2 |c/2d/2c/2B/2cc B/2c/2B/2A/2B3/2 z/2
 |
c/2B/2c/2d/2ee d/2e/2d/2c/2d3/2 z/2 |c/2d/2c/2B/2cc B/2c/2B/2A/2G3/2 |
W:
W: From "Falaleiro" http://home.t-online.de/home/pheld/homepage.htm
